X: 4413
M: 2/4
L: 1/8
K: F
[| !mf!\
c>dfd | e>dc2 | c>dfd | e>fg2 |\
g>ac'a | gedc | a2g2 | c2zA ||
|:\
[1 F>E^DE | B>BAG | A2d2 | c3z :|\
|:\
c'3a | f3(f/g/) | afdf | c3z |\
[1 c'3a | f3(f/g/) | agfd | agec :|\
[2 df zb | a2g2 | fc_dc | fz [fA]z |]


